X:13770
T:Quebec Reel
R:Reel
M:2/4
L:1/16
K:D
A2|FAdA FAdf|e2ee e3d|cecA BcBA|F6A2|
FAdA FAdf|e2ee e3d|cecB Acec|d2dc d2:|
|:b2|a2fd Adfa|g2gg g3g|bgec Acec|dAdf a2b2|
a2fd Adfa|gfga g3g|bgec Acec|d2dc d2:|
